src/WeatherTwentyOne/Resources/Images/fluent_weather_rain_showers_night_20_filled.svg

<svg width="41" height="40" viewBox="0 0 41 40" fill="none" xmlns="http://www.w3.org/2000/svg">
<path d="M22.3797 12.036C27.388 12.036 30.2283 15.182 30.6408 18.984H30.7667C33.9891 18.984 36.6019 21.458 36.6019 24.51C36.6019 27.56 33.9891 30.036 30.7667 30.036L29.312 30.034L29.2917 30.084L26.2705 35.492C26.151 35.7147 25.9506 35.8849 25.7093 35.9685C25.4679 36.0521 25.2034 36.0429 24.9686 35.9429C24.7338 35.8429 24.546 35.6593 24.4427 35.4289C24.3394 35.1985 24.3283 34.9382 24.4114 34.7L24.4846 34.534L27.004 30.034H23.2391L23.2188 30.084L20.1956 35.492C20.073 35.709 19.8729 35.8733 19.6341 35.953C19.3952 36.0328 19.1348 36.0222 18.9035 35.9235C18.6721 35.8247 18.4864 35.6447 18.3823 35.4186C18.2783 35.1925 18.2634 34.9363 18.3406 34.7L18.4117 34.534L20.9311 30.034H17.1317L14.1105 35.492C13.9965 35.6975 13.8128 35.8571 13.5915 35.943C13.3703 36.0289 13.1254 36.0356 12.8996 35.962L12.733 35.89C12.5243 35.7782 12.362 35.5978 12.2744 35.3804C12.1868 35.163 12.1794 34.9222 12.2535 34.7L12.3266 34.534L14.8155 30.034H13.9926C10.7703 30.034 8.15747 27.562 8.15747 24.51C8.15747 21.57 10.5793 19.168 13.6371 18.994L14.1186 18.984C14.5351 15.158 17.3735 12.036 22.3797 12.036V12.036ZM11.902 4.03599C13.258 4.10838 14.5773 4.4956 15.7521 5.166C16.7328 5.72135 17.5926 6.4615 18.2826 7.34413C18.9725 8.22677 19.4789 9.23459 19.773 10.31C16.2702 11.07 13.7529 13.39 12.7269 16.594L12.5948 17.034L12.5013 17.41L12.1661 17.47C10.3953 17.8279 8.8112 18.7933 7.69627 20.194C6.33824 19.5554 5.17397 18.5776 4.3195 17.358C4.20846 17.1993 4.13593 17.0176 4.10752 16.8269C4.07911 16.6363 4.09558 16.4417 4.15566 16.2583C4.21574 16.0749 4.31782 15.9075 4.45402 15.7691C4.59022 15.6307 4.75691 15.5249 4.94122 15.46C7.7369 14.476 9.24243 13.368 10.1019 11.75C11.0446 9.982 11.2173 8.11 10.5935 5.59C10.3904 4.77 11.0466 3.99 11.902 4.038V4.03599Z" fill="url(#paint0_linear)"/>
<defs>
<linearGradient id="paint0_linear" x1="9.64518" y1="9.81935" x2="28.1349" y2="27.433" gradientUnits="userSpaceOnUse">
<stop offset="0.10243" stop-color="#28C2D1"/>
<stop offset="0.925347" stop-color="#4931DE"/>
</linearGradient>
</defs>
</svg>

<svg width="41" height="40" fill="none" xmlns="http://www.w3.org/2000/svg">
    <path
        d="M22.38 12.036c5.008 0 7.848 3.146 8.26 6.948h.127c3.222 0 5.835 2.474 5.835 5.526 0 3.05-2.613 5.526-5.835 5.526l-1.455-.002-.02.05-3.022 5.408c-.119.223-.32.393-.56.477a1.031 1.031 0 01-.741-.026 1.008 1.008 0 01-.526-.514.986.986 0 01-.032-.729l.074-.166 2.519-4.5h-3.765l-.02.05-3.023 5.408a1.012 1.012 0 01-.562.461c-.239.08-.5.07-.73-.03a1.009 1.009 0 01-.522-.504.986.986 0 01-.041-.719l.07-.166 2.52-4.5h-3.8l-3.02 5.458a1.011 1.011 0 01-.52.451 1.03 1.03 0 01-.691.019l-.167-.072a1.005 1.005 0 01-.459-.51.985.985 0 01-.02-.68l.073-.166 2.489-4.5h-.823c-3.223 0-5.836-2.472-5.836-5.524 0-2.94 2.422-5.342 5.48-5.516l.482-.01c.416-3.826 3.255-6.948 8.26-6.948zm-10.478-8a8.706 8.706 0 013.85 1.13 8.572 8.572 0 012.53 2.178 8.425 8.425 0 011.491 2.966c-3.503.76-6.02 3.08-7.046 6.284l-.132.44-.094.376-.335.06a7.646 7.646 0 00-4.47 2.724 8.576 8.576 0 01-3.377-2.836 1.247 1.247 0 01.622-1.898c2.796-.984 4.301-2.092 5.16-3.71.944-1.768 1.116-3.64.492-6.16-.203-.82.454-1.6 1.309-1.552v-.002z"
        fill="url(#prefix__paint0_linear)" />
    <defs>
        <linearGradient id="prefix__paint0_linear" x1="9.645" y1="9.819" x2="28.135" y2="27.433"
            gradientUnits="userSpaceOnUse">
            <stop offset=".102" stop-color="#28C2D1" />
            <stop offset=".925" stop-color="#4931DE" />
        </linearGradient>
    </defs>
</svg>
